www/assets/icons/charging_station.svg

<svg xmlns="http://www.w3.org/2000/svg" width="24" height="24" viewBox="0 0 24 24" fill='currentColor'><path d="m14.5 11-3 6v-4h-2l3-6v4zM7 1h10c1.1 0 2 .9 2 2v18c0 1.1-.9 2-2 2H7c-1.1 0-2-.9-2-2V3c0-1.1.9-2 2-2m0 5v12h10V6z"/></svg>

<svg width="24" height="24" viewBox="0 0 24 24" xmlns="http://www.w3.org/2000/svg" fill='currentColor'><path d="M14.5 11L11.5 17V13H9.5L12.5 7V11H14.5ZM7 1H17C18.1 1 19 1.9 19 3V21C19 22.1 18.1 23 17 23H7C5.9 23 5 22.1 5 21V3C5 1.9 5.9 1 7 1ZM7 6V18H17V6H7Z"/></svg>
